static/img/ico-playstore.svg

<svg width="120" height="40" viewBox="0 0 120 40" fill="none" xmlns="http://www.w3.org/2000/svg">
<rect x="0.5" y="0.5" width="119" height="39" rx="5.5" fill="black"/>
<rect x="0.5" y="0.5" width="119" height="39" rx="5.5" stroke="#A6A6A6"/>
<path d="M17.8048 19.4617L8.0896 30.0059C8.09051 30.0078 8.09051 30.0106 8.09142 30.0125C8.38981 31.1574 9.41179 32 10.6254 32C11.1108 32 11.5662 31.8656 11.9567 31.6305L11.9877 31.6118L22.9229 25.1593L17.8048 19.4617Z" fill="#EA4335"/>
<path d="M27.6331 17.6662L27.624 17.6597L22.9028 14.8612L17.5839 19.7013L22.922 25.1582L27.6176 22.3878C28.4407 21.9324 29 21.045 29 20.0223C29 19.0052 28.4489 18.1225 27.6331 17.6662Z" fill="#FBBC04"/>
<path d="M8.08942 9.99332C8.03102 10.2135 8 10.4449 8 10.6838V29.3164C8 29.5552 8.03102 29.7866 8.09034 30.0059L18.1386 19.7314L8.08942 9.99332Z" fill="#4285F4"/>
<path d="M17.8766 19.9999L22.9044 14.8594L11.982 8.38351C11.585 8.13997 11.1215 8 10.626 8C9.4124 8 8.38859 8.84447 8.09021 9.99034C8.09021 9.99128 8.08929 9.99221 8.08929 9.99314L17.8766 19.9999Z" fill="#34A853"/>
<path d="M43.61 11.71C43.61 12.71 43.3133 13.5067 42.72 14.1C42.0533 14.8067 41.1767 15.16 40.09 15.16C39.05 15.16 38.17 14.8 37.45 14.08C36.73 13.36 36.37 12.4733 36.37 11.42C36.37 10.3667 36.73 9.48 37.45 8.76C38.17 8.04 39.05 7.68 40.09 7.68C40.6167 7.68 41.1133 7.77333 41.58 7.96C42.0467 8.14667 42.43 8.41 42.73 8.75L42.07 9.41C41.85 9.14333 41.5633 8.93667 41.21 8.79C40.8633 8.63667 40.49 8.56 40.09 8.56C39.31 8.56 38.65 8.83 38.11 9.37C37.5767 9.91667 37.31 10.6 37.31 11.42C37.31 12.24 37.5767 12.9233 38.11 13.47C38.65 14.01 39.31 14.28 40.09 14.28C40.8033 14.28 41.3967 14.08 41.87 13.68C42.3433 13.28 42.6167 12.73 42.69 12.03H40.09V11.17H43.56C43.5933 11.3567 43.61 11.5367 43.61 11.71ZM48.9078 7.84V8.72H45.6478V10.99H48.5878V11.85H45.6478V14.12H48.9078V15H44.7278V7.84H48.9078ZM52.5877 8.72V15H51.6677V8.72H49.6677V7.84H54.5877V8.72H52.5877ZM58.6654 15H57.7454V7.84H58.6654V15ZM62.5487 8.72V15H61.6287V8.72H59.6287V7.84H64.5487V8.72H62.5487ZM74.521 11.42C74.521 12.48 74.1677 13.3667 73.461 14.08C72.7477 14.8 71.8743 15.16 70.841 15.16C69.801 15.16 68.9277 14.8 68.221 14.08C67.5143 13.3667 67.161 12.48 67.161 11.42C67.161 10.36 67.5143 9.47333 68.221 8.76C68.9277 8.04 69.801 7.68 70.841 7.68C71.881 7.68 72.7543 8.04333 73.461 8.77C74.1677 9.48333 74.521 10.3667 74.521 11.42ZM68.101 11.42C68.101 12.2467 68.361 12.93 68.881 13.47C69.4077 14.01 70.061 14.28 70.841 14.28C71.621 14.28 72.271 14.01 72.791 13.47C73.3177 12.9367 73.581 12.2533 73.581 11.42C73.581 10.5867 73.3177 9.90333 72.791 9.37C72.271 8.83 71.621 8.56 70.841 8.56C70.061 8.56 69.4077 8.83 68.881 9.37C68.361 9.91 68.101 10.5933 68.101 11.42ZM76.5267 15H75.6067V7.84H76.7267L80.2067 13.41H80.2467L80.2067 12.03V7.84H81.1267V15H80.1667L76.5267 9.16H76.4867L76.5267 10.54V15Z" fill="white"/>
<path d="M93.5181 31.4097H95.1469V20.3981H93.5181V31.4097ZM108.189 24.3646L106.322 29.1388H106.266L104.328 24.3646H102.573L105.479 31.0371L103.823 34.749H105.521L110 24.3646H108.189ZM98.9519 30.1588C98.4176 30.1588 97.6739 29.8902 97.6739 29.2234C97.6739 28.3742 98.6001 28.0483 99.4005 28.0483C100.116 28.0483 100.454 28.2042 100.889 28.4165C100.762 29.4365 99.892 30.1588 98.9519 30.1588ZM99.1483 24.1241C97.969 24.1241 96.7469 24.6482 96.2424 25.8101L97.6879 26.4188C97.9969 25.8101 98.5721 25.611 99.1762 25.611C100.019 25.611 100.875 26.121 100.889 27.0283V27.1411C100.594 26.971 99.9627 26.7165 99.1902 26.7165C97.632 26.7165 96.0451 27.5806 96.0451 29.1952C96.0451 30.6689 97.323 31.6184 98.7546 31.6184C99.8501 31.6184 100.454 31.1225 100.833 30.5411H100.889V31.3912H102.461V27.1692C102.461 25.2146 101.015 24.1241 99.1483 24.1241M89.0821 25.7053H86.7655V21.9308H89.0821C90.2998 21.9308 90.9911 22.9482 90.9911 23.8176C90.9911 24.6711 90.2998 25.7053 89.0821 25.7053ZM89.0402 20.3981H85.1375V31.4097H86.7655V27.2379H89.0402C90.8453 27.2379 92.6199 25.9184 92.6199 23.8176C92.6199 21.7168 90.8453 20.3981 89.0402 20.3981M67.7583 30.1606C66.6332 30.1606 65.6913 29.2102 65.6913 27.9047C65.6913 26.5852 66.6332 25.6198 67.7583 25.6198C68.8695 25.6198 69.7406 26.5852 69.7406 27.9047C69.7406 29.2102 68.8695 30.1606 67.7583 30.1606ZM69.6289 24.9812H69.5722C69.2064 24.5417 68.5038 24.1444 67.6178 24.1444C65.7611 24.1444 64.0599 25.7898 64.0599 27.9047C64.0599 30.0047 65.7611 31.6369 67.6178 31.6369C68.5038 31.6369 69.2064 31.2396 69.5722 30.7851H69.6289V31.3251C69.6289 32.7582 68.8695 33.5246 67.6457 33.5246C66.6471 33.5246 66.0282 32.8005 65.7751 32.1901L64.3549 32.7864C64.7626 33.78 65.8458 35 67.6457 35C69.5582 35 71.1757 33.8646 71.1757 31.0978V24.3708H69.6289V24.9812ZM72.3008 31.4097H73.9322V20.3973H72.3008V31.4097ZM76.3362 27.777C76.2943 26.3298 77.4474 25.5916 78.2766 25.5916C78.9243 25.5916 79.4725 25.9176 79.6549 26.3862L76.3362 27.777ZM81.3989 26.528C81.0899 25.6912 80.1472 24.1444 78.2208 24.1444C76.3083 24.1444 74.7196 25.6621 74.7196 27.8907C74.7196 29.9906 76.2943 31.6369 78.4032 31.6369C80.1053 31.6369 81.0899 30.5869 81.4976 29.9765L80.2319 29.1247C79.8103 29.7493 79.2333 30.1606 78.4032 30.1606C77.5739 30.1606 76.983 29.7774 76.6033 29.0261L81.5674 26.9534L81.3989 26.528ZM41.8501 25.2939V26.883H45.6184C45.5058 27.777 45.2107 28.4297 44.7612 28.8834C44.2121 29.4374 43.3541 30.0479 41.8501 30.0479C39.5291 30.0479 37.7152 28.1602 37.7152 25.8189C37.7152 23.4767 39.5291 21.5899 41.8501 21.5899C43.1018 21.5899 44.0157 22.0867 44.6905 22.7254L45.8017 21.604C44.8589 20.6959 43.6081 20 41.8501 20C38.6719 20 36 22.6117 36 25.8189C36 29.0261 38.6719 31.6369 41.8501 31.6369C43.5653 31.6369 44.8589 31.0688 45.8715 30.0047C46.9129 28.9547 47.2358 27.4793 47.2358 26.2866C47.2358 25.9176 47.2079 25.5775 47.1512 25.2939H41.8501ZM51.5208 30.1606C50.3957 30.1606 49.425 29.2243 49.425 27.8907C49.425 26.5421 50.3957 25.6198 51.5208 25.6198C52.6451 25.6198 53.6158 26.5421 53.6158 27.8907C53.6158 29.2243 52.6451 30.1606 51.5208 30.1606ZM51.5208 24.1444C49.4669 24.1444 47.7936 25.7194 47.7936 27.8907C47.7936 30.0479 49.4669 31.6369 51.5208 31.6369C53.5739 31.6369 55.2472 30.0479 55.2472 27.8907C55.2472 25.7194 53.5739 24.1444 51.5208 24.1444ZM59.65 30.1606C58.5249 30.1606 57.5542 29.2243 57.5542 27.8907C57.5542 26.5421 58.5249 25.6198 59.65 25.6198C60.7752 25.6198 61.745 26.5421 61.745 27.8907C61.745 29.2243 60.7752 30.1606 59.65 30.1606ZM59.65 24.1444C57.597 24.1444 55.9237 25.7194 55.9237 27.8907C55.9237 30.0479 57.597 31.6369 59.65 31.6369C61.7031 31.6369 63.3764 30.0479 63.3764 27.8907C63.3764 25.7194 61.7031 24.1444 59.65 24.1444Z" fill="white"/>
</svg>

<svg xmlns="http://www.w3.org/2000/svg" width="120" height="40" fill="none" viewBox="0 0 120 40"><rect width="119" height="39" x=".5" y=".5" fill="#000" rx="5.5"/><rect width="119" height="39" x=".5" y=".5" stroke="#a6a6a6" rx="5.5"/><path fill="#ea4335" d="M17.805 19.462 8.09 30.006l.001.006C8.39 31.158 9.411 32 10.625 32c.486 0 .941-.134 1.332-.37l.03-.018 10.936-6.453z"/><path fill="#fbbc04" d="m27.633 17.666-.009-.006-4.721-2.799-5.32 4.84 5.339 5.457 4.696-2.77A2.7 2.7 0 0 0 29 20.022a2.69 2.69 0 0 0-1.367-2.356"/><path fill="#4285f4" d="M8.09 9.993a2.7 2.7 0 0 0-.09.69v18.633q0 .36.09.69L18.14 19.73z"/><path fill="#34a853" d="m17.877 20 5.027-5.14-10.922-6.476A2.6 2.6 0 0 0 10.626 8c-1.214 0-2.237.844-2.536 1.99v.003z"/><path fill="#fff" d="M43.61 11.71q0 1.5-.89 2.39-1 1.06-2.63 1.06-1.56 0-2.64-1.08t-1.08-2.66 1.08-2.66 2.64-1.08q.79 0 1.49.28t1.15.79l-.66.66a2.2 2.2 0 0 0-.86-.62 2.7 2.7 0 0 0-1.12-.23q-1.17 0-1.98.81-.8.82-.8 2.05t.8 2.05q.81.81 1.98.81 1.07 0 1.78-.6t.82-1.65h-2.6v-.86h3.47q.05.28.05.54m5.298-3.87v.88h-3.26v2.27h2.94v.86h-2.94v2.27h3.26V15h-4.18V7.84zm3.68.88V15h-.92V8.72h-2v-.88h4.92v.88zM58.665 15h-.92V7.84h.92zm3.884-6.28V15h-.92V8.72h-2v-.88h4.92v.88zm11.972 2.7q0 1.59-1.06 2.66-1.07 1.08-2.62 1.08-1.56 0-2.62-1.08-1.06-1.07-1.06-2.66t1.06-2.66q1.06-1.08 2.62-1.08t2.62 1.09q1.06 1.07 1.06 2.65m-6.42 0q0 1.24.78 2.05.79.81 1.96.81t1.95-.81q.79-.8.79-2.05t-.79-2.05q-.78-.81-1.95-.81t-1.96.81q-.78.81-.78 2.05M76.527 15h-.92V7.84h1.12l3.48 5.57h.04l-.04-1.38V7.84h.92V15h-.96l-3.64-5.84h-.04l.04 1.38zM93.518 31.41h1.629V20.398h-1.629zm14.671-7.045-1.867 4.774h-.056l-1.938-4.774h-1.755l2.906 6.672-1.656 3.712h1.698L110 24.365zm-9.237 5.794c-.534 0-1.278-.269-1.278-.936 0-.849.926-1.175 1.726-1.175.716 0 1.054.156 1.489.369-.127 1.02-.997 1.742-1.937 1.742m.196-6.035c-1.179 0-2.401.524-2.906 1.686l1.446.609c.309-.609.884-.808 1.488-.808.843 0 1.699.51 1.713 1.417v.113c-.295-.17-.926-.424-1.699-.424-1.558 0-3.145.864-3.145 2.478 0 1.474 1.278 2.423 2.71 2.423 1.095 0 1.699-.495 2.078-1.077h.056v.85h1.572V27.17c0-1.954-1.446-3.045-3.313-3.045m-10.066 1.581h-2.316v-3.774h2.316c1.218 0 1.91 1.017 1.91 1.887 0 .853-.692 1.887-1.91 1.887m-.042-5.307h-3.903V31.41h1.629v-4.172h2.274c1.805 0 3.58-1.32 3.58-3.42 0-2.101-1.775-3.42-3.58-3.42m-21.282 9.763c-1.125 0-2.067-.95-2.067-2.256 0-1.32.942-2.285 2.067-2.285 1.112 0 1.983.965 1.983 2.285 0 1.305-.871 2.256-1.983 2.256m1.87-5.18h-.056c-.366-.44-1.068-.837-1.954-.837-1.857 0-3.558 1.646-3.558 3.76 0 2.1 1.701 3.733 3.558 3.733.886 0 1.588-.397 1.954-.852h.057v.54c0 1.433-.76 2.2-1.983 2.2-.999 0-1.618-.724-1.87-1.335l-1.421.596c.408.994 1.49 2.214 3.29 2.214 1.913 0 3.53-1.135 3.53-3.902V24.37H69.63zm2.673 6.429h1.631V20.397h-1.631zm4.035-3.633c-.042-1.447 1.111-2.185 1.94-2.185.648 0 1.197.326 1.379.794zm5.063-1.249c-.31-.837-1.252-2.384-3.178-2.384-1.913 0-3.501 1.518-3.501 3.747 0 2.1 1.574 3.746 3.683 3.746 1.702 0 2.687-1.05 3.095-1.66l-1.266-.852c-.422.624-.999 1.036-1.829 1.036s-1.42-.384-1.8-1.135l4.964-2.073zM41.85 25.294v1.589h3.768c-.112.894-.407 1.547-.857 2-.549.554-1.407 1.165-2.91 1.165-2.322 0-4.136-1.888-4.136-4.23 0-2.341 1.814-4.228 4.135-4.228 1.252 0 2.166.497 2.84 1.135l1.112-1.121C44.859 20.696 43.608 20 41.85 20 38.672 20 36 22.612 36 25.819s2.672 5.818 5.85 5.818c1.715 0 3.009-.568 4.021-1.632 1.042-1.05 1.365-2.526 1.365-3.718 0-.37-.028-.71-.085-.993zm9.67 4.867c-1.124 0-2.095-.937-2.095-2.27 0-1.349.97-2.271 2.096-2.271 1.124 0 2.095.922 2.095 2.27 0 1.334-.97 2.27-2.095 2.27m0-6.017c-2.053 0-3.726 1.575-3.726 3.747 0 2.157 1.673 3.746 3.727 3.746s3.726-1.59 3.726-3.746c0-2.172-1.673-3.747-3.726-3.747m8.13 6.017c-1.125 0-2.096-.937-2.096-2.27 0-1.349.97-2.271 2.096-2.271 1.125 0 2.095.922 2.095 2.27 0 1.334-.97 2.27-2.095 2.27m0-6.017c-2.053 0-3.726 1.575-3.726 3.747 0 2.157 1.673 3.746 3.726 3.746s3.726-1.59 3.726-3.746c0-2.172-1.673-3.747-3.726-3.747"/></svg>
